src/pos-icons/share-off.svg

<svg height="24" viewBox="0 0 24 24" width="24" xmlns="http://www.w3.org/2000/svg"><path d="m20.8 22.7-5.2-5.2-1.6 1.5v-3.1l-.9-1c-4.5.3-7.7 1.9-10.1 5.2.58-3.79 2.72-7.16 5.9-9.3l-7.8-7.8 1.3-1.3 19.7 19.8m-4-6.6 2.9-2.9-7-7v4l-1.5.3"/></svg>

<?xml version="1.0" encoding="UTF-8"?><!DOCTYPE svg PUBLIC "-//W3C//DTD SVG 1.1//EN" "http://www.w3.org/Graphics/SVG/1.1/DTD/svg11.dtd"><svg xmlns="http://www.w3.org/2000/svg" xmlns:xlink="http://www.w3.org/1999/xlink" version="1.1" id="mdi-share-off" width="24" height="24" viewBox="0 0 24 24"><path d="M20.8 22.7L15.6 17.5L14 19V15.9L13.1 14.9C8.6 15.2 5.4 16.8 3 20.1C3.58 16.31 5.72 12.94 8.9 10.8L1.1 3L2.4 1.7L22.1 21.5M18.1 14.9L21 12L14 5V9L12.5 9.3" /></svg>
